X:172
T:Rose Of The Valley,The. RHu.168
S:R.Hughes MS,1823,Whitchurch,Shrops.
W:The Rose of the valley in spring time was gay,
W:but the rose of the valley has withered away..
A:Whitchurch, Shropshire
Z:Tony Weatherall 2006
M:3/4
L:1/8
Q:3/4=35
R:Air
K:F
FG|A3GBA|GFF2F>A|c2c2d>c|c4c’/d’/c’/b/|!
aaa2b/c’/b/a/|gg g2fg|a3bag|fg/f/ efga|!
f2f2f2|f4||F”song starts”G|A3G BA|!
G F3FA|c2c2d>c|c2z2FG|A3G BA|!
GF3c>A|G2G2A>G|F2z2z2|z2z2G2|!
c4ec|c2=B2Bc|d3e fd|e2z2((3c=Bc)|!
A2A2((3c=Bc)|G2G2c>d|e3dc|{c}=B4d/c/B/c/|!
A2A2d/c/B/c/|G2G2cd|e3f de|c4c3B/|!
A2AB cA|dB3BA|G2GA BG|c4e2|!
f2A2Bc/d/|cF3G2|A3F BA|GZ2e2|!
f2A2Bc/d/|cF3FG|A3B AG|F4|]

